X:957
T:Bridgie Con Mat's
S:CD, Boys of the Lough, Twenty
Z:Nigel Gatherer
M:2/4
L:1/8
K:G
GB BA/c/ | BG G/F/G/A/ | GB B/c/d/B/ | AD FD/F/ |
GB BA/c/ | BG GF/G/ | A>G A/B/c/B/ | AD FA :|
Be ef/e/ | d/e/f/a/ g2 | Be ed/B/ | AD FA |
Be ef/e/ | d/e/f/a/ g2 | gg/e/ dd/B/ | AD FA :|
<end>
<start>
